X:1
T:VosVirgen soys
T:Anonymous
T:Source : Cancionero de Uppsala : Villancicos---Venetia---G.Scotto---1556. Editor : André Vierendeels (13/04/17).
T:Notes : Original clefs : C1, C2, C3 Original note values have been halved, and quartered in 3-beat measures Editorial accidentals above the staff Square brackets indicate ligatures Dotted bracket indicates black notes "Villancico de Navidad"
T:VosVirgen soys
T:©
T:©
T:©
C:Anonymous
Z:©
%%score [ 1 2 3 ]
L:1/8
Q:1/4=120
M:6/4
K:F
V:1 treble nm="Soprano" snm="S"
V:2 treble nm="Alto" snm="A"
V:3 treble-8 nm="Tenor" snm="T"
V:1
 F4 G2 A4 B2 | c4 A2 B2 c2 F2 | A2 G4 F6 | z12 | z12 | z6 A3 F G2 | F4 B2 A2 F2 G2 | %7
w: Vos Vir- gen soys|nue- stra ma- * *|* * dre,|||ma- dra- sta|la lla- mo _ _|
w: El- la la de-|xo per- di- * *|* * da,|||quan- do por|ma- dre os to- *|
 B3 A G2 F2 G4 |[M:3/4] A6 ::[M:6/4] c4 c2 A2 B2 G2 | F2 G4 F6 ::[M:2/2] A4 A2 A2 | G4 F4- | %13
w: _ _ _ _ _|yo,|ma- dra- sta la lla-|mo _ yo,|vos co- mo|ma- dre|
w: |mo,|ma- dra- stra la lla-|mo _ yo,|la ol- tra|co- mo|
 F2 GA B4 | A3 B c2 B2 | A2 F2 G4 | F8 | F6 F2 | F2 F2 F2 F2 | G4 A4- | A2 A2 G4 | A8 | B4 c4- | %23
w: _ es- co- gi-|||da,|re- ma-|ta stes nue- stra|ra- *|* sta, nue-|||
w: _ ma- dra- *|||sta,|pu- so'en|cuen- tos nue- stra|vi- *|* da, nue-|||
 c2 c2 B4 | c6 B2 | A6 G2 | F8 | G8 | F8 :| %29
w: * stra ra-|dtra, nue-|stra, ra-|||stra|
w: * stra vi-|da, nue-|stra vi-|||da.|
V:2
 z6 F4 G2 | A4 F2 G2 A3 G | F3 F E2 F6 | A4 G2 E4 F2 | A2 G3 F D2 E4 | D6 z6 | A3 F G2 F2 D2 E2 | %7
w: Vos Vir-|gen soys nue- * *|* stra ma- dre,|que- la, quel fru-|to co- * * mi-|o,|ma- dra- sta la lla- mo|
w: El- la|la de- xo per- *|* * di- da,|quan- do por ma-|dre os- * * to-|mo,|ma- dra- stra la lla- mo|
 F2 G3 F F4 E2 |[M:3/4] F6 ::[M:6/4] A4 G2 F2 G2 E2 | F3 F E2 F6 ::[M:2/2] z8 | z4 A4 | A2 A2 G4 | %14
w: _ _ _ _ _|yo,|ma- dra- sta la _|lla- mo yo, _||vos|co- mo ma-|
w: _ _ _ _ _|yo,|ma- dra- stra la _|lla- mo yo, _||la|otra co- mo|
 F3 G A2 G2- | GF F4 E2 | F8 | D6 D2 | D2 D2 D2 D2 | E4 C4 | D8 | E4 F3 E | D4 C4 | D8 | C4 c4- | %25
w: dre es- con gi-||da,|re- ma-|ta- stes nue- stra|ra- *|stra|ra- * *|||stra, nue-|
w: ma- * * dra-||stra,|pu- so'en|cuen- tos nue- stra-|vi- *|da,|en cuen- tos|nue- stra|vi-|da, nue-|
 c2 B2 A4- | A2 G2 F4- | F4 E4 | F8 :| %29
w: * stra, ra-|||stra.|
w: * stra vi-|||da.|
V:3
 z12 | z12 | z12 | f4 e2 c4 d2 | f2 e3 d d4 c2 | d6 z6 | z6 d4 c2 | B4 c2 d2 c4 |[M:3/4] F6 :: %9
w: |||Que la pe- ro|co- * * mi- *|o,|ma- dra-|sta la lla- mo|yo,|
w: |||Quan- do por ma-|dre os _ to- *|mo,|ma- dra-|stra la lla- mo|yo,|
[M:6/4] f4 c2 d2 B2 c2 | d2 c4 F6 ::[M:2/2] z8 | z8 | z8 | z8 | z8 | z4 B4- | B2 B2 B2 B2 | %18
w: ma- dra- sta la lla-|mo _ yo,||||||re-|* ma- ta- stes|
w: ma- dra- sta la lla-|mo _ yo,||||||pu-|* so'en- cuen- tos|
 B2 B2 d4 | c4 A4 | B8 | A4 F4 | G4 A4 | G4 G4 | A4 F4 | f6 e2 | d3 c d4 | c8 | F8 :| %29
w: nue- stra ra-||sta,|re- ma|ta- stes|nue- stra|ra- *|* stra,|nue- stra ra-||stra|
w: nue- stra vi-||da,|pu- so'en-|cuen- tos|nue- stra|vi- *|* da,|nue- stra vi-||da.|

